X:1
T:Fire Island, CMD
T:Fire Island, CMD
T:J. F. Fargo, 1880
T:Public Domain Courtesy of the Cyber Hymnal™
C:J. F. Fargo, 1880
Z:Public Domain
Z:Courtesy of the Cyber Hymnal™
%%score ( 1 2 ) ( 3 4 )
L:1/8
Q:1/4=95
M:3/4
K:G
V:1 treble 
V:2 treble 
V:3 bass 
V:4 bass 
V:1
 D2 | D[DG] [GB]2 [Gd]2 | [Fd][FA] [FA]2 ([GB][=Fd]) | [Ec]3 [CE] [^CF][CE] | D4 D2 | %5
 D[DG] [GB]2 [Gd]2 | [Ge][GA] [FA]2 (Bd) | [Ec]3 [EA] [DE][DF] | [DG]4 [DG]2 | %9
 [DG][DG] [EG]2 [EG]2 | [EG][EA] [^DB]2 [DB]2 | [EB]3 [EA] [EA][EA] | [DA]4 D2 | %13
 D[DG] [GB]2 [Gd]2 | [Ge][GA] [FA]2 (Bd) | [Ec]3 [EA] [DE][DF] | [DG]4 |] %17
V:2
 D2 | D x5 | x6 | x6 | D4 D2 | D x5 | x4 G2 | x6 | x6 | x6 | x6 | x6 | x4 D2 | D x5 | x4 G2 | x6 | %16
 x4 |] %17
V:3
 [G,B,]2 | [G,B,][G,B,] [G,D]2 [G,B,]2 | [D,A,][D,D] [D,D]2 (DB,) | [C,C]3 [C,G,] [A,,A,][A,,G,] | %4
 [D,F,]4 ([D,F,][F,A,]) | [G,B,][G,B,] [G,D]2 [G,B,]2 | [C,C][^C,E] [D,D]2 (DB,) | %7
 [C,C]3 [C,C] [D,C][D,C] | [G,,G,B,]4 [G,B,]2 | [G,B,][F,B,] [E,B,]2 [E,B,]2 | %10
 [C,C][C,E,] [B,,F,]2 [B,,F,]2 | [C,E,]3 [C,E,] [^C,A,][C,G,] | [D,F,]4 ([D,F,][F,A,]) | %13
 [G,B,][G,B,] [G,D]2 [G,B,]2 | [C,C][^C,E] [D,D]2 (DB,) | [C,C]3 [C,C] [D,C][D,C] | [G,,G,B,]4 |] %17
V:4
 x2 | x6 | x4 G,2 | x6 | x6 | x6 | x4 G,2 | x6 | x6 | x6 | x6 | x6 | x6 | x6 | x4 G,2 | x6 | x4 |] %17

